build/img/icon-vk.svg

<svg width="40" height="40" fill="#828282" xmlns="http://www.w3.org/2000/svg">
  <path d="M7.44318 0C3.36584 0 0 3.36584 0 7.44318V32.5568C0 36.6342 3.36584 40 7.44318 40H32.5568C36.6342 40 40 36.6342 40 32.5568V7.44318C40 3.36584 36.6342 0 32.5568 0H7.44318ZM7.44318 3.63636H32.5568C34.6686 3.63636 36.3636 5.33144 36.3636 7.44318V32.5568C36.3636 34.6686 34.6686 36.3636 32.5568 36.3636H7.44318C5.33144 36.3636 3.63636 34.6686 3.63636 32.5568V7.44318C3.63636 5.33144 5.33144 3.63636 7.44318 3.63636ZM19.4886 13.125C18.1541 13.1123 17.0036 13.1514 16.3636 13.4659C15.9382 13.675 15.5955 14.1205 15.7955 14.1477C16.0427 14.1805 16.6355 14.3123 16.9318 14.7159C17.3155 15.2377 17.2727 16.4205 17.2727 16.4205C17.2727 16.4205 17.4959 19.655 16.7614 20.0568C16.2577 20.3314 15.5764 19.7245 14.0909 17.1591C13.3291 15.8445 12.7841 14.4318 12.7841 14.4318C12.7841 14.4318 12.6414 14.1227 12.4432 13.9773C12.2032 13.8009 11.875 13.75 11.875 13.75L8.35227 13.8068C8.35227 13.8068 7.80818 13.8014 7.61364 14.0341C7.43909 14.2414 7.55682 14.6591 7.55682 14.6591C7.55682 14.6591 10.37 21.2068 13.5227 24.4886C16.4173 27.4959 19.7159 27.2727 19.7159 27.2727H21.1932C21.1932 27.2727 21.6459 27.2359 21.875 26.9886C22.0859 26.7614 22.0455 26.3068 22.0455 26.3068C22.0455 26.3068 22.0291 24.3268 22.9545 24.0341C23.8673 23.745 25.0632 25.9655 26.3068 26.8182C27.2468 27.4636 27.9545 27.3295 27.9545 27.3295L31.25 27.2727C31.25 27.2727 32.9827 27.1627 32.1591 25.7955C32.0918 25.6845 31.7068 24.8018 29.7159 22.9545C27.6323 21.02 27.8868 21.3 30.3977 17.9545C31.9268 15.9164 32.5773 14.6805 32.3864 14.1477C32.2045 13.6405 31.0795 13.8068 31.0795 13.8068H27.3295C27.3295 13.8068 27.0236 13.7968 26.8182 13.9205C26.6164 14.0405 26.4773 14.3182 26.4773 14.3182C26.4773 14.3182 25.9027 15.8741 25.1136 17.2159C23.4482 20.045 22.7727 20.1745 22.5 20C21.8655 19.5909 22.0455 18.3764 22.0455 17.5C22.0455 14.7582 22.4755 13.5918 21.25 13.2955C20.8427 13.1973 20.5305 13.1359 19.4886 13.125Z"/>
</svg>

<svg width="40" height="40" fill="#828282" xmlns="http://www.w3.org/2000/svg"><path d="M7.443 0C3.366 0 0 3.366 0 7.443v25.114C0 36.634 3.366 40 7.443 40h25.114C36.634 40 40 36.634 40 32.557V7.443C40 3.366 36.634 0 32.557 0H7.443zm0 3.636h25.114a3.795 3.795 0 013.807 3.807v25.114a3.795 3.795 0 01-3.807 3.807H7.443a3.795 3.795 0 01-3.807-3.807V7.443a3.795 3.795 0 013.807-3.807zm12.046 9.489c-1.335-.013-2.485.026-3.125.34-.426.21-.769.655-.569.683.248.033.84.164 1.137.568.384.522.34 1.705.34 1.705s.224 3.234-.51 3.636c-.504.274-1.186-.332-2.671-2.898-.762-1.314-1.307-2.727-1.307-2.727s-.143-.31-.34-.455a1.487 1.487 0 00-.569-.227l-3.523.057s-.544-.006-.738.227c-.175.207-.057.625-.057.625s2.813 6.548 5.966 9.83c2.894 3.007 6.193 2.784 6.193 2.784h1.477s.453-.037.682-.284c.21-.228.17-.682.17-.682s-.016-1.98.91-2.273c.912-.289 2.108 1.931 3.352 2.784.94.646 1.648.511 1.648.511l3.295-.056s1.733-.11.91-1.477c-.068-.111-.453-.994-2.444-2.841-2.084-1.935-1.83-1.655.682-5 1.529-2.039 2.18-3.274 1.988-3.807-.181-.508-1.307-.341-1.307-.341h-3.75s-.305-.01-.51.114c-.203.12-.342.397-.342.397s-.574 1.556-1.363 2.898C23.448 20.045 22.773 20.174 22.5 20c-.634-.41-.454-1.624-.454-2.5 0-2.742.43-3.908-.796-4.204-.407-.099-.72-.16-1.761-.171z"/></svg>
